src/components/icon/assets/edit-wand.svg

<?xml version="1.0" encoding="UTF-8"?>
<svg width="24px" height="24px" viewBox="0 0 24 24" version="1.1" xmlns="http://www.w3.org/2000/svg" xmlns:xlink="http://www.w3.org/1999/xlink">
    <!-- Generator: Sketch 60 (88103) - https://sketch.com -->
    <title>Edit Wand</title>
    <desc>Created with Sketch.</desc>
    <g id="Edit-Wand" stroke="none" stroke-width="1" fill="none" fill-rule="evenodd">
        <path d="M15.7143218,6.93564232 L16.6819416,7.90326213 C17.0724659,8.29378642 17.0724659,8.9269514 16.6819416,9.31747569 L13.8162983,12.183119 L7.37790499,18.6215123 C6.9873807,19.0120366 6.35421572,19.0120366 5.96369143,18.6215123 L4.99607162,17.6538925 C4.60554733,17.2633682 4.60554733,16.6302032 4.99607162,16.2396789 L11.4344649,9.80128559 L14.3001082,6.93564232 C14.6906325,6.54511803 15.3237975,6.54511803 15.7143218,6.93564232 Z M18.0180603,9.89473684 L18.5130374,10.8976699 L19.6198397,11.0584977 L18.81895,11.8391722 L19.0080144,12.9415023 L18.0180603,12.4210526 L17.0281062,12.9415023 L17.2171706,11.8391722 L16.4162809,11.0584977 L17.5230832,10.8976699 L18.0180603,9.89473684 Z M15.007215,7.6427491 L12.8486785,9.80128559 L13.8162983,10.7689054 L15.9748348,8.61036891 L15.007215,7.6427491 Z M18.4391129,4 L19.0578343,5.25366632 L20.4413372,5.45470106 L19.4402251,6.4305442 L19.6765556,7.80845683 L18.4391129,7.15789474 L17.2016703,7.80845683 L17.4380008,6.4305442 L16.4368887,5.45470106 L17.8203916,5.25366632 L18.4391129,4 Z M12.1233235,4 L12.6183005,5.00293306 L13.7251029,5.16376085 L12.9242132,5.94443536 L13.1132776,7.04676546 L12.1233235,6.52631579 L11.1333694,7.04676546 L11.3224338,5.94443536 L10.5215441,5.16376085 L11.6283464,5.00293306 L12.1233235,4 Z" id="Combined-Shape" fill="#000000"></path>
    </g>
</svg>

<svg xmlns="http://www.w3.org/2000/svg" viewBox="0 0 24 24"><path d="M15.714 6.936l.968.967a1 1 0 010 1.414l-2.866 2.866-6.438 6.439a1 1 0 01-1.414 0l-.968-.968a1 1 0 010-1.414l6.438-6.44L14.3 6.936a1 1 0 011.414 0zm2.304 2.959l.495 1.003 1.107.16-.801.781.189 1.103-.99-.52-.99.52.19-1.103-.802-.78 1.107-.161.495-1.003zm-3.01-2.252L12.847 9.8l.968.968 2.159-2.159-.968-.967zM18.438 4l.619 1.254 1.383.2-1 .977.236 1.377-1.238-.65-1.237.65.236-1.377-1.001-.976 1.383-.201L18.44 4zm-6.316 0l.495 1.003 1.107.16-.8.781.188 1.103-.99-.52-.99.52.19-1.103-.801-.78 1.106-.161L12.123 4z" fill-rule="evenodd"/></svg>
